findly-builder/apps/searchassist/src/assets/icons/sidemenu/new-icons/channels.svg

<svg width="14" height="14" viewBox="0 0 14 14" fill="none" xmlns="http://www.w3.org/2000/svg">
<path fill-rule="evenodd" clip-rule="evenodd" d="M11.8745 0.777832H2.12544C1.38064 0.777832 0.777771 1.38067 0.777771 2.12578V9.43719L0.779419 9.50453C0.814439 10.2183 1.40321 10.7851 2.12544 10.7851L5.0885 10.7848L6.55473 12.9839L6.58377 13.0236C6.80672 13.3011 7.24259 13.2879 7.44525 12.9839L8.91115 10.7848L11.8745 10.7851C12.6193 10.7851 13.2222 10.1823 13.2222 9.43719V2.12578C13.2222 1.38067 12.6193 0.777832 11.8745 0.777832ZM2.12544 1.84896H11.8745C12.0283 1.84896 12.1517 1.97239 12.1517 2.12578V9.43719C12.1517 9.59058 12.0283 9.71401 11.8745 9.71401H8.62484L8.57158 9.71666C8.4132 9.73249 8.26894 9.81834 8.17958 9.95236L6.99999 11.7211L5.8204 9.95236C5.72112 9.80345 5.55405 9.71401 5.37514 9.71401H2.12544C1.9717 9.71401 1.84826 9.59058 1.84826 9.43719V2.12578C1.84826 1.97239 1.9717 1.84896 2.12544 1.84896ZM3.98924 5.32969C3.98924 5.69966 4.28831 5.99871 4.6583 5.99871C5.02829 5.99871 5.32735 5.69966 5.32735 5.32969C5.32735 4.95972 5.02829 4.66067 4.6583 4.66067C4.28831 4.66067 3.98924 4.95972 3.98924 5.32969ZM7.09557 5.99871C6.72558 5.99871 6.42652 5.69966 6.42652 5.32969C6.42652 4.95972 6.72558 4.66067 7.09557 4.66067C7.46556 4.66067 7.76463 4.95972 7.76463 5.32969C7.76463 5.69966 7.46556 5.99871 7.09557 5.99871ZM8.86379 5.32969C8.86379 5.69966 9.16286 5.99871 9.53285 5.99871C9.90284 5.99871 10.2019 5.69966 10.2019 5.32969C10.2019 4.95972 9.90284 4.66067 9.53285 4.66067C9.16286 4.66067 8.86379 4.95972 8.86379 5.32969Z" fill="#202124"/>
</svg>

<svg width="14" height="14" fill="none" xmlns="http://www.w3.org/2000/svg"><path fill-rule="evenodd" clip-rule="evenodd" d="M11.874.778H2.125C1.381.778.778 1.38.778 2.126v7.311l.001.068c.035.713.624 1.28 1.346 1.28h2.963l1.467 2.199.029.04a.535.535 0 0 0 .861-.04l1.466-2.2 2.963.001c.745 0 1.348-.603 1.348-1.348V2.126c0-.745-.603-1.348-1.348-1.348ZM2.125 1.849h9.75c.153 0 .277.123.277.277v7.311a.276.276 0 0 1-.277.277h-3.25l-.053.003a.535.535 0 0 0-.392.235L7 11.722l-1.18-1.77a.535.535 0 0 0-.445-.238h-3.25a.276.276 0 0 1-.277-.277V2.126c0-.154.124-.277.277-.277Zm1.864 3.48a.668.668 0 1 0 1.337.002.668.668 0 0 0-1.337-.001ZM7.096 6a.668.668 0 1 1-.002-1.337A.668.668 0 0 1 7.096 6Zm1.768-.67a.668.668 0 1 0 1.337.002.668.668 0 0 0-1.337-.001Z" fill="#202124"/></svg>
